X: 34172
T: Reel Of Bogie, The
R: reel
M: 4/4
K: Edorian
BE~E2 dEcE|~B2AF DEFA|BE~E2 dEcE|~B2AF E2FA|
1 BE~E2 dEcE|~B2AF DEFA|~B3d cBce|dBAF E2FA:|
2 B3B BAFA|(3Bcd AF DEFA|~B3d cBce|dBAF E2FE||
D2 FA d3A|~B2AF BFAF|D2FA defe|dBAF EGFE|
D2 FA d3f|edef g2fg|afge fdec|1 dBAF E2FE:|2 dBAF E2FA||

